dist/img/icons/tls.svg

<svg width="39" height="39" viewBox="0 0 39 39" fill="none" xmlns="http://www.w3.org/2000/svg">
<g clip-path="url(#clip0_1895_34483)">
<path d="M29.1692 2.86659H9.05207L0 18.8826L9.05207 34.8986H29.1692L38.2213 18.8826L29.1692 2.86659Z" fill="#0B002E"/>
<mask id="mask0_1895_34483" style="mask-type:alpha" maskUnits="userSpaceOnUse" x="0" y="2" width="39" height="33">
<path d="M29.1692 2.86659H9.05207L0 18.8826L9.05207 34.8986H29.1692L38.2213 18.8826L29.1692 2.86659Z" fill="#0B002E"/>
</mask>
<g mask="url(#mask0_1895_34483)">
<rect x="28.0107" y="2.54808" width="24.2068" height="38.4338" transform="rotate(32 28.0107 2.54808)" fill="url(#paint0_linear_1895_34483)"/>
<rect x="8.4248" y="35.866" width="24.2068" height="38.6607" transform="rotate(-148 8.4248 35.866)" fill="url(#paint1_linear_1895_34483)"/>
</g>
<path d="M14.4599 26.8988H14.4592C14.2126 26.8988 14.0127 27.0988 14.0127 27.3454V27.9264C14.0127 28.173 14.2126 28.3729 14.4592 28.3729H14.4599C14.7065 28.3729 14.9064 28.173 14.9064 27.9264V27.3454C14.9064 27.0988 14.7065 26.8988 14.4599 26.8988Z" stroke="white" stroke-width="0.391768"/>
<path d="M23.1337 26.8988H23.1331C22.8865 26.8988 22.6865 27.0988 22.6865 27.3454V27.9264C22.6865 28.173 22.8865 28.3729 23.1331 28.3729H23.1337C23.3803 28.3729 23.5803 28.173 23.5803 27.9264V27.3454C23.5803 27.0988 23.3803 26.8988 23.1337 26.8988Z" stroke="white" stroke-width="0.391768"/>
<path d="M17.3515 26.8988H17.3508C17.1042 26.8988 16.9043 27.0988 16.9043 27.3454V27.9264C16.9043 28.173 17.1042 28.3729 17.3508 28.3729H17.3515C17.5981 28.3729 17.798 28.173 17.798 27.9264V27.3454C17.798 27.0988 17.5981 26.8988 17.3515 26.8988Z" stroke="white" stroke-width="0.391768"/>
<path d="M21.206 26.8988H21.2053C20.9587 26.8988 20.7588 27.0988 20.7588 27.3454V27.9264C20.7588 28.173 20.9587 28.3729 21.2053 28.3729H21.206C21.4526 28.3729 21.6525 28.173 21.6525 27.9264V27.3454C21.6525 27.0988 21.4526 26.8988 21.206 26.8988Z" stroke="white" stroke-width="0.391768"/>
<path d="M19.795 26.8988V28.3729M15.9404 26.8988V28.3729V26.8988ZM24.6141 26.8988V28.3729V26.8988ZM18.8312 26.8988V28.3729V26.8988Z" stroke="white" stroke-width="0.391768" stroke-linecap="round"/>
<path d="M12.9927 24.9559H13.9737V19.1985H16.1587V18.2857H10.7988V19.1985H12.9927V24.9559ZM18.2915 24.0437V18.2857H17.3105V24.9559H21.8257V24.0437H18.2915ZM25.2745 25.063C26.8479 25.063 27.7015 24.2087 27.7015 23.0818C27.7015 21.888 26.7798 21.4415 25.4497 21.1306C24.3521 20.8682 23.7794 20.6548 23.7794 20.0337C23.7794 19.4992 24.3037 19.024 25.0515 19.024C25.7312 19.024 26.4007 19.3247 26.9639 19.8394L27.527 19.1011C26.8862 18.5386 26.1192 18.1596 25.0904 18.1596C23.7501 18.1596 22.7793 19.0043 22.7793 20.121C22.7793 21.3249 23.6826 21.7326 25.042 22.053C26.158 22.3053 26.7116 22.548 26.7116 23.1793C26.7116 23.7131 26.2358 24.1985 25.3134 24.1985C24.4107 24.1985 23.7112 23.8297 23.1195 23.2666L22.527 23.9947C23.236 24.6744 24.1578 25.063 25.2745 25.063ZM20.2331 11.969C20.5892 10.9759 20.437 9.66616 19.5681 8.81574C18.3947 7.66783 16.4976 7.66273 15.3242 8.81128C15.0452 9.08149 14.8232 9.40492 14.6713 9.76244C14.5195 10.12 14.4409 10.5043 14.4401 10.8927C14.4394 11.2812 14.5166 11.6658 14.6672 12.0239C14.8177 12.3819 15.0385 12.7062 15.3166 12.9774C16.211 13.8527 17.4812 14.1049 18.6164 13.6061L19.1795 14.1565L19.2005 14.1775L19.9923 14.0419L19.9885 14.8522L20.8115 14.8541L20.7083 15.6529L21.1173 16.0536L21.1198 16.0555L21.1498 16.0255C21.2938 16.1529 21.2479 16.0956 21.2695 16.0956L22.6786 16.137C22.7952 16.137 22.8971 16.0529 22.8971 15.9389L22.8424 14.5477C22.8424 14.5266 22.906 14.5757 22.7755 14.4349L22.764 14.4457L22.7627 14.4445L20.2337 11.969H20.2331ZM16.9818 10.5516C16.8349 10.6941 16.6382 10.7738 16.4336 10.7738C16.229 10.7738 16.0323 10.6941 15.8854 10.5516C15.8136 10.482 15.7565 10.3986 15.7175 10.3065C15.6785 10.2143 15.6585 10.1153 15.6585 10.0152C15.6585 9.9152 15.6785 9.81617 15.7175 9.72404C15.7565 9.6319 15.8136 9.54853 15.8854 9.47888C16.0323 9.3364 16.229 9.25672 16.4336 9.25672C16.6382 9.25672 16.8349 9.3364 16.9818 9.47888C17.285 9.77509 17.285 10.2554 16.9818 10.5516Z" fill="white"/>
</g>
<defs>
<linearGradient id="paint0_linear_1895_34483" x1="40.1141" y1="2.54808" x2="40.1141" y2="40.9819" gradientUnits="userSpaceOnUse">
<stop stop-color="#01052F"/>
<stop offset="1" stop-color="#404362"/>
</linearGradient>
<linearGradient id="paint1_linear_1895_34483" x1="20.5282" y1="35.866" x2="20.5282" y2="74.5267" gradientUnits="userSpaceOnUse">
<stop stop-color="#01052F"/>
<stop offset="1" stop-color="#404362"/>
</linearGradient>
<clipPath id="clip0_1895_34483">
<rect width="38.2213" height="32.4881" fill="white" transform="translate(0 2.86659)"/>
</clipPath>
</defs>
</svg>

<svg width="39" height="39" viewBox="0 0 39 39" fill="none" xmlns="http://www.w3.org/2000/svg"><g clip-path="url(#clip0_1895_34483)"><path d="M29.17 2.867H9.051L0 18.883l9.052 16.016H29.17l9.052-16.016L29.17 2.867z" fill="#0B002E"/><mask id="mask0_1895_34483" style="mask-type:alpha" maskUnits="userSpaceOnUse" x="0" y="2" width="39" height="33"><path d="M29.17 2.867H9.051L0 18.883l9.052 16.016H29.17l9.052-16.016L29.17 2.867z" fill="#0B002E"/></mask><g mask="url(#mask0_1895_34483)"><path transform="rotate(32 28.01 2.548)" fill="url(#paint0_linear_1895_34483)" d="M28.011 2.548h24.207v38.434H28.011z"/><path transform="rotate(-148 8.425 35.866)" fill="url(#paint1_linear_1895_34483)" d="M8.425 35.866h24.207v38.661H8.425z"/></g><path d="M14.46 26.899h0c-.247 0-.447.2-.447.446v.581c0 .247.2.447.446.447h0c.248 0 .447-.2.447-.447v-.58c0-.247-.2-.447-.446-.447zm8.674 0h0c-.247 0-.448.2-.448.446v.581c0 .247.2.447.447.447h0c.247 0 .447-.2.447-.447v-.58c0-.247-.2-.447-.446-.447zm-5.782 0h-.001c-.247 0-.447.2-.447.446v.581c0 .247.2.447.447.447h0c.247 0 .447-.2.447-.447v-.58c0-.247-.2-.447-.446-.447zm3.854 0h0c-.247 0-.447.2-.447.446v.581c0 .247.2.447.446.447h.001c.247 0 .447-.2.447-.447v-.58c0-.247-.2-.447-.447-.447z" stroke="#fff" stroke-width=".392"/><path d="M19.795 26.899v1.474m-3.855-1.474v1.474-1.474zm8.674 0v1.474-1.474zm-5.783 0v1.474-1.474z" stroke="#fff" stroke-width=".392" stroke-linecap="round"/><path d="M12.993 24.956h.98v-5.758h2.186v-.912h-5.36v.912h2.194v5.758zm5.298-.912v-5.758h-.98v6.67h4.515v-.912H18.29zm6.983 1.019c1.574 0 2.427-.854 2.427-1.981 0-1.194-.921-1.64-2.251-1.951-1.098-.263-1.67-.476-1.67-1.097 0-.535.524-1.01 1.271-1.01.68 0 1.35.3 1.913.815l.563-.738c-.64-.562-1.408-.941-2.437-.941-1.34 0-2.31.844-2.31 1.961 0 1.204.903 1.612 2.262 1.932 1.116.252 1.67.495 1.67 1.126 0 .534-.476 1.02-1.399 1.02-.902 0-1.602-.37-2.194-.932l-.592.728c.709.68 1.63 1.068 2.747 1.068zm-5.04-13.094c.355-.993.203-2.303-.666-3.153a3.045 3.045 0 00-4.244-.005 2.906 2.906 0 00-.007 4.166c.894.876 2.164 1.128 3.3.63l.563.55.02.02.792-.135-.004.81.823.002-.103.799.41.4.002.002.03-.03c.144.128.098.07.12.07l1.409.042c.116 0 .218-.084.218-.198l-.055-1.391c0-.021.064.028-.066-.113l-.012.01h-.001l-2.53-2.476zm-3.252-1.417a.787.787 0 01-1.097 0 .747.747 0 010-1.073.788.788 0 011.097 0 .746.746 0 010 1.073z" fill="#fff"/></g><defs><linearGradient id="paint0_linear_1895_34483" x1="40.114" y1="2.548" x2="40.114" y2="40.982" gradientUnits="userSpaceOnUse"><stop stop-color="#01052F"/><stop offset="1" stop-color="#404362"/></linearGradient><linearGradient id="paint1_linear_1895_34483" x1="20.528" y1="35.866" x2="20.528" y2="74.527" gradientUnits="userSpaceOnUse"><stop stop-color="#01052F"/><stop offset="1" stop-color="#404362"/></linearGradient><clipPath id="clip0_1895_34483"><path fill="#fff" transform="translate(0 2.867)" d="M0 0h38.221v32.488H0z"/></clipPath></defs></svg>
